packages/assets/static/images/icons/escalator-down.svg

<svg width="24" height="24" viewBox="0 0 24 24" xmlns="http://www.w3.org/2000/svg">
<path d="M15.704 8.29594C15.4926 8.08459 15.3739 7.79795 15.3739 7.49906C15.3739 7.20018 15.4926 6.91353 15.704 6.70219C15.9153 6.49084 16.202 6.37211 16.5008 6.37211C16.7997 6.37211 17.0864 6.49084 17.2977 6.70219L17.6249 7.03125V4.5C17.6249 4.20163 17.7434 3.91548 17.9544 3.7045C18.1654 3.49353 18.4515 3.375 18.7499 3.375C19.0483 3.375 19.3344 3.49353 19.5454 3.7045C19.7564 3.91548 19.8749 4.20163 19.8749 4.5V7.03125L20.204 6.70125C20.3086 6.5966 20.4329 6.51359 20.5696 6.45696C20.7063 6.40032 20.8529 6.37117 21.0008 6.37117C21.1488 6.37117 21.2954 6.40032 21.4321 6.45696C21.5688 6.51359 21.6931 6.5966 21.7977 6.70125C21.9024 6.8059 21.9854 6.93013 22.042 7.06686C22.0986 7.20359 22.1278 7.35013 22.1278 7.49813C22.1278 7.64612 22.0986 7.79266 22.042 7.92939C21.9854 8.06612 21.9024 8.19035 21.7977 8.295L19.5477 10.545C19.4432 10.6499 19.319 10.7331 19.1823 10.7899C19.0455 10.8467 18.8989 10.8759 18.7508 10.8759C18.6028 10.8759 18.4562 10.8467 18.3194 10.7899C18.1827 10.7331 18.0585 10.6499 17.954 10.545L15.704 8.29594ZM22.8749 15V18.75C22.8749 19.2473 22.6774 19.7242 22.3257 20.0758C21.9741 20.4275 21.4972 20.625 20.9999 20.625H15.7499C15.5946 20.625 15.4409 20.5929 15.2986 20.5306C15.1563 20.4683 15.0284 20.3773 14.923 20.2631L6.25772 10.875H2.99991C2.50263 10.875 2.02571 10.6775 1.67408 10.3258C1.32245 9.97419 1.12491 9.49728 1.12491 9V5.25C1.12491 4.75272 1.32245 4.27581 1.67408 3.92417C2.02571 3.57254 2.50263 3.375 2.99991 3.375H8.24991C8.40525 3.37496 8.55892 3.4071 8.70123 3.46938C8.84354 3.53166 8.97141 3.62274 9.07678 3.73688L17.7421 13.125H20.9999C21.4972 13.125 21.9741 13.3225 22.3257 13.6742C22.6774 14.0258 22.8749 14.5027 22.8749 15ZM20.6249 15.375H17.2499C17.0946 15.375 16.9409 15.3429 16.7986 15.2806C16.6563 15.2183 16.5284 15.1273 16.423 15.0131L7.75772 5.625H3.37491V8.625H6.74991C6.90525 8.62496 7.05892 8.6571 7.20123 8.71938C7.34354 8.78166 7.47141 8.87274 7.57678 8.98688L16.2421 18.375H20.6249V15.375Z"/>
</svg>

<svg viewBox="0 0 24 24" xmlns="http://www.w3.org/2000/svg" aria-hidden="true" fill="currentColor" height="24px" width="24px"><path d="M15.704 8.296a1.127 1.127 0 1 1 1.594-1.594l.327.33V4.5a1.125 1.125 0 1 1 2.25 0v2.531l.329-.33a1.127 1.127 0 1 1 1.594 1.594l-2.25 2.25a1.125 1.125 0 0 1-1.594 0zM22.874 15v3.75A1.875 1.875 0 0 1 21 20.625h-5.25a1.13 1.13 0 0 1-.827-.362l-8.665-9.388H3A1.875 1.875 0 0 1 1.125 9V5.25A1.875 1.875 0 0 1 3 3.375h5.25a1.13 1.13 0 0 1 .827.362l8.665 9.388H21A1.875 1.875 0 0 1 22.875 15m-2.25.375H17.25a1.13 1.13 0 0 1-.827-.362L7.758 5.625H3.375v3H6.75a1.13 1.13 0 0 1 .827.362l8.665 9.388h4.383z"/></svg>
